X:1
T:F minor Daniel Belknap, 1802
T:Isaac Watts, 1709 (Hymn 27, Book 2) 88. 88. (L. M.)
T:Pittsford
T:Transcribed from The Village Compilation, 1806.
%%score [ 1 2 3 4 ]
L:1/8
M:2/2
K:Ab
V:1 treble nm="Treble" snm="Tr."
V:2 treble nm="Counter" snm="C."
V:3 treble-8 nm="Tenor" snm="T."
V:4 bass nm="Bass" snm="B."
V:1
 c4 | c2 B2 A4 | (B2 d2) c2 c2 | c8 | A4 c2 c2 | c2 d2 c4- | c4 B4 | e8 | (f2 c2) c2 B2 | A6 B2 | %10
w: 1.~God,|the e- ter-|nal, * aw- ful|name,|Which the whole|heav'n- ly ar-|* my|fears,|Which * shakes the|wide cre-|
 (c2 d2 c2) B2 | B6 G2 | (A>BcB A2) B2 | (c>Bcd e2) d2 | (e2 c4) c2 | c8 |] %16
w: a- * * tion's|frame, And|Sa- * * * * tan|trem- * * * * bles|when * he|hears.|
V:2
 F4 | E2 E2 F4 | F4 A2 G2 | A8 | F4 G2 G2 | G2 G2 A4- | A4 G4 | G8 | (F2 A2) G2 G2 | A6 G2 | %10
w: 2.~Like|flames of fire|his ser- vants|are,|And light sur-|rounds his dwel-|* ling|place;|But * O ye|fie- ry|
 (F2 B2 A2) F2 | G6 F2 | (A>GFE F2) A2 | (A>GFG A2) G2 | (A2 F2) =E4 | F8 |] %16
w: flames! * * de-|clare The|brigh- * * * * ter|glo- * * * * ry|of * his|face.|
V:3
 c4 | A2 B2 c4 | f4 =e2 e2 | f8 | c4 e2 e2 | e2 f2 (c3 B | A4) B4 | c8 | (c2 f2) e2 d2 | c6 B2 | %10
w: 'Tis|not for such|poor worms as|we|To speak so|in- fi- nite *|* a|thing;|But * you im-|mor- tal|
 (A2 B2 c2) d2 | e6 d2 | (c>BAB c2) f2 | (e>fed c2) B2 | A4 G4 | F8 |] %16
w: eyes * * sur-|vey The|beau- * * * * ties|of * * * * your|sove- reign|King.|
V:4
 F,4 | A,2 G,2 F,4 | B,,4 C,2 C,2 | F,8 | F,4 C,2 C,2 | C2 B,2 (A,3 G, | F,4) G,4 | C,8 | %8
 F,4 C,2 C,2 | F,6 =E,2 | (F,2 G,2 A,2) B,2 | E,6 F,2 | F,6 F,2 | A,6 B,2 | C4 C,4 | F,8 |] %16

